!!!OTL: WOHL UNTER GRUENEN BAEUMELEIN
!!!ARE: Europa, Mitteleuropa, Deutschland, Oderbreg, Hohen - Saathen
!!!SCT: E0683B
!!!YEM: Copyright 1995, estate of Helmut Schaffrath.
**kern
*ICvox
*Ivox
*M2/4
*k[f#]
*G:
{8d
=1
8.g
16a
8b
8cc
=2
8.dd
16b
4g}
=3
{4b
8dd
16gg
16ee
=4
4dd
8r}
{8dd
=5
8ee
16ee
16dd
8cc
8b
=6
8.a
16f#
4d}
=7
{4g
16b
16a
16a
16f#
=8
4g
8r}
==
!!!AGN: Liebes - Lied, Leid, Klage
!!!ONB: ESAC (Essen Associative Code) Database: ERK2
!!!AMT: simple duple
!!!AIN: vox
!!!EED: Helmut Schaffrath
!!!EEV: 1.0
*-
